X:1
T:Pols
R:Pols
Z:Håkan Lidén
N:Vet absolut ingenting om den här låten! Kan någon som känner igen den komplettera?
M:3/4
L:1/8
K:Dm
D>E F2 F2 | A>^c d2 d>e | f>a (3geg (3fdf | e>^c A4 | 
D>E F2 F2 | A>^c d2 d>e | f>a (3geg (3fdf | e>^c d4 :|
|: a>e f>a g>e | f>e d>^c d>e | f>a (3geg (3fdf | e>^c A4 |
a>e f>a g>e | f>e d>^c d>e | f>a (3geg (3fdf | e>^c d4 :|]

